src/section/s1/logo.svg

<svg width="506" height="190" viewBox="0 0 506 190" fill="none" xmlns="http://www.w3.org/2000/svg">
<path d="M12.66 189.67H0.75L0.87 169.44H3.4L3.29 187.31H12.68V189.67H12.66Z" fill="white"/>
<path d="M75.1304 169.42L75.0304 185.9L72.1604 189.67H63.2204L60.4004 185.9L60.5004 169.42H63.0304L62.9304 185.17L64.5604 187.32H70.8504L72.5104 185.14L72.6104 169.42H75.1404H75.1304Z" fill="white"/>
<path d="M135.68 189.73L129.82 181.62L123.89 189.73L121.81 188.43L128.31 179.53L121.92 170.6L124.01 169.3L129.84 177.44L135.8 169.3L137.88 170.6L131.35 179.53L137.77 188.43L135.68 189.73Z" fill="white"/>
<path d="M199.33 169.42L199.23 185.9L196.36 189.67H187.42L184.6 185.9L184.7 169.42H187.23L187.13 185.17L188.76 187.32H195.05L196.71 185.14L196.81 169.42H199.34H199.33Z" fill="white"/>
<path d="M259.32 187.31H261.91V189.67H257.98L251.84 181.47H249.6L249.55 189.67H247.02L247.14 169.44H257.6L260.59 171.77L260.54 179.17L257.52 181.47H254.93L259.32 187.31ZM256.65 179.12L258.01 178.09L258.04 172.9L256.69 171.81H249.64L249.6 179.12H256.65Z" fill="white"/>
<path d="M315.51 171.8H313.68L313.59 187.31H315.42V189.67H309.21V187.31H311.06L311.15 171.8H309.32V169.44H315.53V171.8H315.51Z" fill="white"/>
<path d="M362.68 189.67L362.75 178.88L370.11 169.36H372.64L379.88 178.88L379.81 189.67H377.28L377.32 183.3H365.25L365.21 189.67H362.68ZM377.34 179.65L371.35 171.84C369.28 174.49 367.34 176.94 365.27 179.65V180.95H377.33V179.65H377.34Z" fill="white"/>
<path d="M427.77 189.64L427.89 169.44H431.59L441.09 186.66L441.19 169.44H443.72L443.6 189.64H439.9L430.4 172.42L430.3 189.64H427.77Z" fill="white"/>
<path d="M497.01 189.67L497.12 171.8H490.89V169.44H505.85V171.8H499.64L499.53 189.67H497H497.01Z" fill="white"/>
<path d="M274.53 0.700002H260.47V16.86H248V28.68H260.47V102.15L243.08 123.53L254.69 130.01L274.52 105.69V28.67H315V116.97H284.13V128.79H329.05V16.86H274.51V0.700002H274.53ZM411.77 114.81L431.83 131.31L441.71 123.02L421.65 106.51L411.77 114.8V114.81ZM0.75 71.82H158.24V61.43H0.75V71.82ZM234.02 99.03L225.43 109.19H216.13V29.97H240.25V18.15H176.99V29.97H202.07V109.18H176.99V121H232.58L245.63 105.67L234.02 99.03ZM411.77 89.71L431.83 106.22L441.71 97.93L421.65 81.42L411.77 89.71ZM433.78 46.37V38.62H501.65V26.8H433.78V18.91H501.65V7.09H433.78V0.690002H419.72V7.09H351.67V18.91H419.72V26.8H351.67V38.62H419.72V46.37H347.46V58.19H505.85V46.37H433.77H433.78ZM359.74 131.1H373.8V77.57H479.7V131.1H493.76V65.75H359.74V131.1Z" fill="white"/>
</svg>

<svg xmlns="http://www.w3.org/2000/svg" fill="#fff" viewBox="0 0 506 190">
<path d="M0.8,189.7l0.1-20.2h2.5l-0.1,17.9h9.4v2.4H0.8z M75,185.9l-2.9,3.8h-8.9l-2.8-3.8l0.1-16.5H63l-0.1,15.8
	l1.6,2.2h6.3l1.7-2.2l0.1-15.7h2.5L75,185.9z M121.9,170.6l2.1-1.3l13.8,19.1l-2.1,1.3 M123.9,189.7l-2.1-1.3l14-19.1l2.1,1.3
	 M199.2,185.9l-2.9,3.8h-8.9l-2.8-3.8l0.1-16.5h2.5l-0.1,15.8l1.6,2.2h6.3l1.7-2.2l0.1-15.7h2.5L199.2,185.9z M259.3,187.3h2.6v2.4
	H258l-6.1-8.2h-2.2l-0.1,8.2H247l0.1-20.2h10.5l3,2.3l0,7.4l-3,2.3h-2.6L259.3,187.3z M256.6,179.1l1.4-1l0-5.2l-1.4-1.1h-7.1l0,7.3
	H256.6z M315.5,171.8h-1.8l-0.1,15.5h1.8v2.4h-6.2v-2.4h1.9l0.1-15.5h-1.8v-2.4h6.2L315.5,171.8z M362.7,189.7l0.1-10.8l7.4-9.5h2.5
	l7.2,9.5l-0.1,10.8h-2.5l0-6.4h-12.1l0,6.4H362.7z M371.4,171.8l-6.1,7.8v1.3h12.1v-1.3L371.4,171.8z M427.8,189.6l0.1-20.2h3.7
	l9.5,17.2l0.1-17.2h2.5l-0.1,20.2h-3.7l-9.5-17.2l-0.1,17.2H427.8z M497.1,171.8h-6.2v-2.4h15v2.4h-6.2l-0.1,17.9H497L497.1,171.8z
	 M315,28.7V117h-30.9v11.8H329V16.9h-81v11.8 M274.5,0.7h-14.1v101.4l-17.4,21.4l11.6,6.5l19.8-24.3 M421.6,106.5l-9.9,8.3v0
	l20.1,16.5l9.9-8.3 M0.8,71.8h157.5V61.4H0.8V71.8z M234,99l-8.6,10.2h-9.3V30h24.1V18.1H177V30h25.1v79.2H177V121h55.6l13.1-15.3
	L234,99z M421.6,81.4l-9.9,8.3l20.1,16.5l9.9-8.3 M433.8,0.7h-14.1v45.7h-72.3v11.8h158.4V46.4h-72.1h0 M501.6,18.9V7.1h-150v11.8
	 M501.6,38.6V26.8h-150v11.8 M359.7,65.8v65.4h14.1V77.6h105.9v53.5h14.1V65.8"/>
</svg>
